svgs/thin/cassette-betamax.svg

<svg xmlns="http://www.w3.org/2000/svg" viewBox="0 0 576 512"><!--! Font Awesome Pro 6.6.0 by @fontawesome - https://fontawesome.com License - https://fontawesome.com/license (Commercial License) Copyright 2024 Fonticons, Inc. --><path d="M16 144l0 272c0 26.5 21.5 48 48 48l448 0c26.5 0 48-21.5 48-48l0-272L16 144zm0-16l544 0 0-32c0-26.5-21.5-48-48-48L64 48C37.5 48 16 69.5 16 96l0 32zM576 96l0 32 0 8 0 8 0 272c0 35.3-28.7 64-64 64L64 480c-35.3 0-64-28.7-64-64L0 144l0-8 0-8L0 96C0 60.7 28.7 32 64 32l448 0c35.3 0 64 28.7 64 64zM240 304A80 80 0 1 0 80 304a80 80 0 1 0 160 0zM64 304a96 96 0 1 1 192 0A96 96 0 1 1 64 304zm96-16a16 16 0 1 0 0 32 16 16 0 1 0 0-32zm32 16a32 32 0 1 1 -64 0 32 32 0 1 1 64 0zm160-80c-8.8 0-16 7.2-16 16l0 128c0 8.8 7.2 16 16 16l128 0c8.8 0 16-7.2 16-16l0-128c0-8.8-7.2-16-16-16l-128 0zm-32 16c0-17.7 14.3-32 32-32l128 0c17.7 0 32 14.3 32 32l0 128c0 17.7-14.3 32-32 32l-128 0c-17.7 0-32-14.3-32-32l0-128z"/></svg>

<svg xmlns="http://www.w3.org/2000/svg" viewBox="0 0 576 512"><!--! Font Awesome Pro 6.4.2 by @fontawesome - https://fontawesome.com License - https://fontawesome.com/license (Commercial License) Copyright 2023 Fonticons, Inc. --><path d="M16 144V416c0 26.5 21.5 48 48 48H512c26.5 0 48-21.5 48-48V144H16zm0-16H560V96c0-26.5-21.5-48-48-48H64C37.5 48 16 69.5 16 96v32zM576 96v32 8 8V416c0 35.3-28.7 64-64 64H64c-35.3 0-64-28.7-64-64V144v-8-8V96C0 60.7 28.7 32 64 32H512c35.3 0 64 28.7 64 64zM240 304A80 80 0 1 0 80 304a80 80 0 1 0 160 0zM64 304a96 96 0 1 1 192 0A96 96 0 1 1 64 304zm96-16a16 16 0 1 0 0 32 16 16 0 1 0 0-32zm32 16a32 32 0 1 1 -64 0 32 32 0 1 1 64 0zm160-80c-8.8 0-16 7.2-16 16V368c0 8.8 7.2 16 16 16H480c8.8 0 16-7.2 16-16V240c0-8.8-7.2-16-16-16H352zm-32 16c0-17.7 14.3-32 32-32H480c17.7 0 32 14.3 32 32V368c0 17.7-14.3 32-32 32H352c-17.7 0-32-14.3-32-32V240z"/></svg>
